wp-content/themes/gamefoss/assets/images/logo/vertical-logo.svg

<svg width="200" height="109" viewBox="0 0 200 109" fill="none" xmlns="http://www.w3.org/2000/svg">
<g clip-path="url(#clip0)">
<path d="M44.4812 22.2766V49.7186H37.1274C36.5294 47.686 35.872 45.9762 35.1541 44.5888C32.1169 48.5115 27.6211 50.472 21.6664 50.472C15.3528 50.472 10.1631 48.2657 6.09784 43.8538C2.03261 39.4413 0 33.4688 0 25.9352C0 18.6175 1.9666 12.4653 5.9009 7.47918C9.83466 2.49306 15.6879 0 23.4605 0C29.2954 0 33.9947 1.48285 37.5584 4.44801C41.1216 7.41372 43.4294 11.6226 44.4817 17.0753L29.9178 18.5099C29.2005 13.4161 26.9638 10.8693 23.2097 10.8693C18.283 10.8693 15.8204 15.5569 15.8204 24.9311C15.8204 30.5991 16.6093 34.3359 18.1881 36.141C19.7664 37.9468 21.6792 38.8493 23.9276 38.8493C25.7444 38.8493 27.2933 38.2996 28.5731 37.1989C29.8524 36.0994 30.5036 34.5927 30.528 32.6794H22.4203V22.2766H44.4812Z" fill="black"/>
<path d="M79.4089 49.7186L76.6418 40.0687H63.5241L60.5845 49.7186H48.3821L63.4986 0.753387H79.39L94.7478 49.7186H79.4089ZM66.0793 29.3792H74.0017L70.0402 15.1753L66.0793 29.3792Z" fill="black"/>
<path d="M152.493 0.753387V49.7186H138.538V14.7076L129.48 49.7186H119.939L110.522 14.7076V49.7186H99.258V0.753387H118.898L126.001 26.7607L132.781 0.753387H152.493Z" fill="black"/>
<path d="M197.871 38.0244V49.7186H161.03V0.753387H197.871V12.0531H175.773V19.1556H193.638V30.0249H175.773V38.0244H197.871Z" fill="black"/>
<path d="M3.03116 79.3884L2.46698 56.7295L42.463 55.7338L42.7531 67.3886L19.2904 67.9727L19.3886 71.927L19.4885 75.9334L37.5213 75.4846L3.03116 79.3884ZM19.2904 67.9733L19.3886 71.9276L19.4885 75.934" fill="#ED1C24"/>
<path d="M37.945 79.6342L37.4635 90.6366L19.4424 89.8477L18.6408 108.161L2.118 107.437L3.26855 81.1625L37.945 79.6342Z" fill="#ED1C24"/>
<path d="M43.5903 80.5163C44.1306 76.8977 45.2035 73.6801 46.8084 70.8642C48.4133 68.0482 50.5519 65.6334 53.223 63.6196C58.5636 59.5927 65.3504 58.1936 73.5835 59.4224C81.2008 60.5591 87.0762 63.709 91.2102 68.872C92.7824 70.8359 93.9757 72.9633 94.7901 75.255" fill="#ED1C24"/>
<path d="M93.8675 82.0285C93.4836 85.311 92.6936 88.2645 91.4965 90.8902C89.8771 94.44 87.5161 97.3902 84.4112 99.7396C79.0084 103.827 72.469 105.422 64.7929 104.525C57.0624 103.622 51.0267 100.617 46.6858 95.5107C44.2848 92.687 42.6838 89.4822 41.8827 85.8952" fill="#ED1C24"/>
<path d="M146.16 81.1248C148.023 83.4342 148.954 86.1564 148.954 89.2913C148.954 94.2452 146.684 98.26 142.145 101.334C137.604 104.409 131.646 105.947 124.268 105.947C110.783 105.947 102.46 100.973 99.2985 91.0238L115.067 88.513C116.39 92.4589 119.795 94.4316 125.281 94.4316C129.551 94.4316 131.686 93.427 131.686 91.4182C131.686 90.3664 131.193 89.547 130.207 88.9607C129.22 88.3748 127.457 87.8556 124.916 87.4018" fill="#ED1C24"/>
<path d="M124.268 84.0839C114.565 82.4379 108.335 80.2882 105.581 77.6326C102.824 74.977 101.447 71.8554 101.447 68.2667C101.447 63.6506 103.426 59.8112 107.386 56.749C111.344 53.6867 117.039 52.1562 124.471 52.1562C135.74 52.1562 143.185 56.162 146.806 64.1732L132.741 67.9394C131.282 64.6631 128.323 63.0249 123.864 63.0249C120.161 63.0249 118.31 64.0423 118.31 66.0744C118.31 66.9836 118.729 67.6881 119.567 68.1907C120.404 68.6922 122.026 69.1704 124.432 69.6231C131.054 70.8624 135.756 71.9586 138.541 72.9117C141.326 73.8653 143.648 75.4957 145.512 77.8057" fill="#ED1C24"/>
<path d="M156.12 79.8905C153.486 77.1145 152.249 73.9346 152.41 70.3498C152.616 65.7382 154.765 61.9908 158.857 59.1089C162.948 56.2269 168.706 54.9515 176.131 55.2838C187.389 55.7876 194.647 60.1224 197.906 68.2872L183.686 71.421C182.376 68.0831 179.492 66.314 175.038 66.1148C171.339 65.949 169.444 66.8821 169.354 68.9125C169.313 69.8206 169.699 70.5434 170.514 71.0832C171.329 71.6224 172.928 72.1716 175.311 72.7319C181.87 74.2658 186.52 75.5711 189.258 76.6474" fill="#ED1C24"/>
<path d="M190.778 77.8335C193.52 78.903 195.773 80.6305 197.537 83.0165C199.303 85.4014 200.118 88.1613 199.986 91.2929C199.778 96.2418 197.34 100.157 192.676 103.039C188.01 105.92 181.992 107.205 174.621 106.895C161.148 106.328 153.042 101.009 150.301 90.9351L166.161 89.09C167.317 93.0881 170.636 95.2022 176.118 95.4336C180.383 95.6133 182.559 94.7002 182.643 92.6925C182.687 91.6418 182.23 90.8025 181.269 90.1756C180.308 89.5487 178.567 88.9557 176.049 88.3954C166.423 86.3434 160.29 83.933 157.649 81.1637" fill="#ED1C24"/>
</g>
<defs>
<clipPath id="clip0">
<rect width="200" height="108.161" fill="white"/>
</clipPath>
</defs>
</svg>

<?xml version="1.0" encoding="utf-8"?>
<!-- Generator: Adobe Illustrator 16.0.0, SVG Export Plug-In . SVG Version: 6.00 Build 0)  -->
<!DOCTYPE svg PUBLIC "-//W3C//DTD SVG 1.1//EN" "http://www.w3.org/Graphics/SVG/1.1/DTD/svg11.dtd">
<svg version="1.1" id="Layer_1" xmlns="http://www.w3.org/2000/svg" xmlns:xlink="http://www.w3.org/1999/xlink" x="0px" y="0px"
	 width="200px" height="109px" viewBox="0 0 200 109" enable-background="new 0 0 200 109" xml:space="preserve">
<g>
	<defs>
		<rect id="SVGID_1_" width="200" height="108.161"/>
	</defs>
	<clipPath id="SVGID_2_">
		<use xlink:href="#SVGID_1_"  overflow="visible"/>
	</clipPath>
	<path clip-path="url(#SVGID_2_)" d="M44.481,22.276v27.442h-7.354c-0.598-2.033-1.255-3.743-1.973-5.13
		c-3.038,3.923-7.533,5.883-13.488,5.883c-6.313,0-11.503-2.207-15.569-6.618C2.033,39.441,0,33.469,0,25.935
		c0-7.317,1.967-13.47,5.901-18.456C9.834,2.493,15.688,0,23.46,0c5.835,0,10.534,1.483,14.098,4.448
		c3.563,2.965,5.871,7.174,6.923,12.627L29.918,18.51c-0.717-5.094-2.954-7.641-6.708-7.641c-4.926,0-7.389,4.688-7.389,14.062
		c0,5.668,0.789,9.405,2.368,11.21c1.579,1.806,3.491,2.708,5.74,2.708c1.817,0,3.366-0.549,4.646-1.65
		c1.279-1.099,1.93-2.606,1.955-4.52H22.42V22.276H44.481z"/>
	<path clip-path="url(#SVGID_2_)" d="M79.409,49.719l-2.767-9.65H63.524l-2.939,9.65H48.382L63.499,0.753H79.39l15.358,48.965
		H79.409z M66.079,29.379h7.922L70.04,15.175L66.079,29.379z"/>
	<path clip-path="url(#SVGID_2_)" d="M152.493,0.753v48.965h-13.955V14.708l-9.058,35.011h-9.541l-9.418-35.011v35.011H99.258V0.753
		h19.641l7.103,26.007l6.78-26.007H152.493z"/>
	<path clip-path="url(#SVGID_2_)" d="M197.871,38.024v11.694h-36.842V0.753h36.842v11.3h-22.098v7.103h17.865v10.869h-17.865v8
		H197.871z"/>
	<g clip-path="url(#SVGID_2_)">
		<path fill="#ED1C24" d="M3.031,79.389L2.467,56.729l39.996-0.995l0.29,11.654l-23.462,0.584l0.098,3.954l0.1,4.007l18.033-0.449
			L3.031,79.389z M19.291,67.973l0.098,3.955l0.1,4.006"/>
		<path fill="#ED1C24" d="M37.945,79.635l-0.481,11.002l-18.021-0.789l-0.802,18.313l-16.522-0.724l1.15-26.275L37.945,79.635z"/>
	</g>
	<g clip-path="url(#SVGID_2_)">
		<path fill="#ED1C24" d="M43.59,83.909c0.54-3.618,1.613-6.836,3.218-9.651c1.604-2.815,3.743-5.231,6.415-7.245
			c5.34-4.026,12.127-5.426,20.36-4.197c7.617,1.137,13.493,4.287,17.626,9.45c1.572,1.964,2.766,4.091,3.58,6.383"/>
		<path fill="#ED1C24" d="M93.868,85.422c-0.384,3.282-1.174,6.236-2.371,8.862c-1.62,3.549-3.98,6.5-7.085,8.85
			c-5.403,4.087-11.942,5.682-19.618,4.785c-7.73-0.903-13.766-3.908-18.107-9.015c-2.401-2.823-4.002-6.028-4.803-9.616"/>
	</g>
	<g clip-path="url(#SVGID_2_)">
		<path fill="#ED1C24" d="M146.16,83.339c1.863,2.309,2.794,5.031,2.794,8.166c0,4.954-2.271,8.969-6.81,12.043
			c-4.541,3.075-10.498,4.613-17.877,4.613c-13.484,0-21.808-4.975-24.969-14.924l15.768-2.51c1.324,3.945,4.729,5.918,10.215,5.918
			c4.27,0,6.404-1.005,6.404-3.014c0-1.052-0.492-1.871-1.479-2.457s-2.75-1.105-5.291-1.559"/>
		<path fill="#ED1C24" d="M124.268,86.298c-9.703-1.646-15.933-3.796-18.687-6.451c-2.757-2.656-4.134-5.777-4.134-9.366
			c0-4.616,1.979-8.456,5.939-11.518c3.957-3.063,9.652-4.593,17.084-4.593c11.27,0,18.715,4.006,22.336,12.018l-14.065,3.766
			c-1.459-3.276-4.418-4.914-8.878-4.914c-3.702,0-5.553,1.018-5.553,3.049c0,0.909,0.418,1.613,1.256,2.116
			c0.838,0.502,2.459,0.979,4.865,1.433c6.623,1.239,11.324,2.336,14.109,3.289s5.107,2.584,6.971,4.894"/>
	</g>
	<g clip-path="url(#SVGID_2_)">
		<path fill="#ED1C24" d="M156.12,81.111c-2.634-2.775-3.871-5.955-3.71-9.541c0.206-4.611,2.355-8.359,6.447-11.24
			c4.091-2.883,9.849-4.158,17.273-3.826c11.258,0.504,18.516,4.84,21.775,13.004l-14.221,3.135
			c-1.31-3.338-4.193-5.107-8.647-5.307c-3.699-0.166-5.595,0.768-5.685,2.797c-0.041,0.908,0.346,1.631,1.16,2.172
			c0.815,0.539,2.414,1.088,4.797,1.648c6.56,1.533,11.209,2.84,13.947,3.916"/>
		<path fill="#ED1C24" d="M190.777,79.055c2.742,1.068,4.996,2.797,6.76,5.184c1.766,2.385,2.581,5.145,2.449,8.275
			c-0.209,4.949-2.646,8.865-7.311,11.746c-4.666,2.881-10.684,4.166-18.055,3.855c-13.473-0.566-21.579-5.885-24.32-15.959
			l15.86-1.846c1.155,3.998,4.476,6.113,9.957,6.344c4.265,0.18,6.44-0.732,6.524-2.74c0.045-1.051-0.412-1.891-1.373-2.518
			s-2.703-1.221-5.221-1.779c-9.626-2.053-15.759-4.463-18.4-7.232"/>
	</g>
</g>
</svg>
